vectors/gate/gateio.svg

<svg xmlns="http://www.w3.org/2000/svg" viewBox="-309.67 -377.5 715.7 830.96"><path fill="#DE5959" d="M-15.586-101.9l-4.863-4.882c-3.67-3.667-9.98-1.07-9.98 4.13v69.723c0 3.224 2.638 5.84 5.87 5.84h69.736c5.195 0 7.822-6.298 4.12-9.97-2.274-2.275-2.274-5.967 0-8.252l74.18-74.38c2.276-2.275 2.276-5.967 0-8.257l-6.757-6.732c-3.673-3.667-1.056-9.966 4.13-9.966h69.697c3.223 0 5.86 2.617 5.86 5.84v69.727c0 5.194-6.33 7.802-10 4.13l-4.708-4.697c-2.306-2.344-5.978-2.344-8.243 0l-125.05 125c-2.274 2.266-5.966 2.266-8.27 0L-112.86-97.65a5.833 5.833 0 010-8.282L98.944-317.73c2.266-2.28 2.266-6 0-8.27L49.14-375.8a5.873 5.873 0 00-8.27 0L-233.3-101.6c-2.272 2.28-2.272 6 0 8.27L40.87 180.84c2.274 2.266 6.005 2.266 8.27 0L323.3-93.33c2.266-2.28 2.266-5.98 0-8.252l-161.298-161.3c-2.256-2.27-5.967-2.27-8.252 0L-7.305-101.898a5.83 5.83 0 01-8.28 0z"/><g fill="#DE5959"><path d="M196.73 365.625c-4.2 0-7.823 1.504-10.86 4.53-2.998 3.028-4.53 6.603-4.53 10.743 0 6.31 3.202 11.22 9.56 14.727 6.973 1.904 12.578.664 16.797-3.652 3.047-3.047 4.55-6.7 4.55-10.957 0-4.307-1.503-7.91-4.55-10.86-3.027-3.007-6.66-4.51-10.977-4.51l.01-.02zM-50.8 248.535h-11.485c-4.96 0-8.994 4.004-8.994 8.965v6.406c-12.216-12.705-26.05-19.063-41.498-19.063-17.842 0-32.73 6.64-44.6 19.883-11.904 13.242-17.832 29.795-17.832 49.668 0 20.215 5.928 37.09 17.798 50.615 12.002 13.25 27.134 19.872 45.464 19.872 14.497 0 28.062-5.918 40.67-17.725v12.666c0 6.152 5 11.152 11.142 11.152h19.61V258.8c0-5.655-4.61-10.265-10.275-10.265zm-29.024 97.276c-6.987 7.804-16.138 11.7-27.485 11.7-10.63 0-19.437-4.033-26.4-12.1-6.82-7.97-10.22-18.34-10.22-31.035 0-11.875 3.5-21.875 10.48-29.94 7.07-7.99 15.873-11.964 26.4-11.964 11.162 0 20.22 3.937 27.207 11.866 6.992 8.066 10.488 18.3 10.488 30.732s-3.496 22.666-10.488 30.752l.02-.01zM-175.22 270.9v-13.105c0-5.117-4.14-9.238-9.258-9.238h-12.104c-5.098 0-9.248 4.102-9.248 9.238v5.723c-11.07-12.44-24.95-18.672-41.64-18.672-19.05 0-34.4 7.188-46.002 21.504-10.8 13.496-16.196 29.932-16.196 49.258 0 19.863 5.82 36.436 17.437 49.668 11.522 13.096 26.303 19.59 44.36 19.59 15.858 0 29.882-6.19 42.04-18.623v18.507c0 27.5-11.2 41.25-33.6 41.25-12.162 0-21.4-4.14-27.748-12.402-1.62-2.09-2.964-4.707-4.033-7.832-1.5-4.375-5.66-7.285-10.27-7.285h-11.602c-5.85 0-10.2 5.566-8.72 11.23 3.173 12.05 9.3 21.855 18.422 29.443 11.43 9.532 26 14.308 43.677 14.308 20.952 0 37.422-6.914 49.404-20.684 6.35-7.168 10.597-15.742 12.78-25.723.727-3.612 1.298-7.82 1.698-12.597.4-4.746.6-10.254.6-16.523v-19.258c-8.568-12.354-12.88-27.11-12.88-44.297 0-16.885 4.302-31.348 12.88-43.467v-.01zM-214 344.766c-6.8 8.496-16.04 12.744-27.758 12.744-11.704 0-20.864-4.22-27.5-12.666-6.064-7.695-9.102-17.598-9.102-29.648 0-12.256 3.037-22.236 9.102-29.94 6.73-8.605 15.88-12.91 27.5-12.91 10.88 0 19.82 3.944 26.797 11.825 6.898 7.706 10.36 18 10.36 30.9 0 12.06-3.14 21.942-9.4 29.677v.02zm293.297-96.133v-.098H15.8v-38.877c0-5-4.042-9.053-9.052-9.053H-5.645a9.16 9.16 0 00-9.16 9.16v38.77H-27.88v28.555h13.056v113.867h17.46a13.12 13.12 0 0013.146-13.145V277.11h31.396a64.215 64.215 0 019.053-13.106c6.505-7.09 14.2-12.227 23.048-15.37h.02zm156.23-48.028c-5.43 0-10.098 1.953-14.004 5.86-3.887 3.895-5.86 8.534-5.86 13.876 0 5.636 1.954 10.362 5.86 14.298 3.906 3.896 8.633 5.84 14.16 5.84 5.537 0 10.195-1.943 13.994-5.85 3.896-3.926 5.87-8.613 5.87-14.15 0-5.518-1.954-10.205-5.86-13.994-3.916-3.925-8.632-5.88-14.16-5.88zm6.202 62.93h-11.105c-5.693 0-10.332 4.61-10.332 10.332v97.207c2.344 2.744 3.457 5.977 3.457 9.736s-1.113 7.03-3.457 9.795v5.47H240c6.035 0 10.918-4.894 10.918-10.94v-112.44c0-5.06-4.12-9.16-9.2-9.16h.01zm143.895 18.77c-13.79-13.506-30.576-20.264-50.352-20.264-19.688 0-36.387 6.7-50.078 20.147-13.69 13.418-20.547 29.707-20.547 48.848 0 20.313 6.7 37.188 20.137 50.625 13.438 13.594 30.098 20.4 49.94 20.4 20.04 0 36.964-6.66 50.763-20 13.672-13.447 20.547-30.068 20.547-49.94 0-19.698-6.807-36.3-20.41-49.835v.02zm-21.66 80.84c-7.148 7.725-16.72 11.543-28.69 11.543-11.905 0-21.466-3.877-28.73-11.7-7.07-7.694-10.616-18.202-10.616-31.425 0-12.324 3.65-22.402 10.907-30.195 7.246-7.793 16.72-11.71 28.438-11.71 11.865 0 21.445 3.917 28.69 11.71 7.17 7.695 10.763 18.008 10.763 30.86 0 12.91-3.594 23.183-10.762 30.897v.02z"/><path d="M90.703 357.793c-6.31-6.387-9.834-15.098-10.645-25.977h87.754c4.004 0 7.305-3.203 7.363-7.197 0-21.905-5.625-38.976-16.865-51.32-11.357-12.42-26.787-18.632-46.28-18.632-19.296 0-34.823 6.406-46.522 19.18-11.62 12.988-17.422 29.94-17.422 50.898 0 21.133 5.996 38.105 17.95 50.88 8.358 8.886 18.603 14.647 30.76 17.333 5.1 1.2 10.392 1.825 15.733 1.747 21.806.45 40.76.898 62.558 1.348l.03-3.193c-2.667-2.9-4.005-6.396-4.005-10.48 0-3.964 1.396-7.372 4.12-10.32l.02-3.878c-17.206-.43-58.866-.84-60.526-.84-9.766 0-17.793-3.154-24.023-9.53v-.02zm-4.258-61.21c1.924-2.99 4.2-5.548 6.885-7.677 2.686-2.158 5.635-3.77 8.916-4.902 3.262-1.133 6.758-1.7 10.488-1.7 16.31 0 26.602 8.155 30.898 24.474H82.1c1.005-3.8 2.45-7.198 4.345-10.196z"/></g></svg>

<svg viewBox="0 0 561 561" version="1.1" xmlns="http://www.w3.org/2000/svg" xmlns:xlink="http://www.w3.org/1999/xlink" xml:space="preserve" xmlns:serif="http://www.serif.com/" style="fill-rule:evenodd;clip-rule:evenodd;stroke-linejoin:round;stroke-miterlimit:2;">
    <g transform="matrix(1,0,0,1,-74.666,-0.00874773)">
        <g transform="matrix(1,0,0,1,309.67,377.5)">
            <path d="M-15.586,-101.9L-20.449,-106.782C-24.119,-110.449 -30.429,-107.852 -30.429,-102.652L-30.429,-32.929C-30.429,-29.705 -27.791,-27.089 -24.559,-27.089L45.177,-27.089C50.372,-27.089 52.999,-33.387 49.297,-37.059C47.023,-39.334 47.023,-43.026 49.297,-45.311L123.477,-119.691C125.753,-121.966 125.753,-125.658 123.477,-127.948L116.72,-134.68C113.047,-138.347 115.664,-144.646 120.85,-144.646L190.547,-144.646C193.77,-144.646 196.407,-142.029 196.407,-138.806L196.407,-69.079C196.407,-63.885 190.077,-61.277 186.407,-64.949L181.699,-69.646C179.393,-71.99 175.721,-71.99 173.456,-69.646L48.406,55.354C46.132,57.62 42.44,57.62 40.136,55.354L-112.86,-97.65C-113.964,-98.745 -114.585,-100.237 -114.585,-101.791C-114.585,-103.345 -113.964,-104.837 -112.86,-105.932L98.944,-317.73C101.21,-320.01 101.21,-323.73 98.944,-326L49.14,-375.8C46.866,-378.055 43.144,-378.055 40.87,-375.8L-233.3,-101.6C-235.572,-99.32 -235.572,-95.6 -233.3,-93.33L40.87,180.84C43.144,183.106 46.875,183.106 49.14,180.84L323.3,-93.33C325.566,-95.61 325.566,-99.31 323.3,-101.582L162.002,-262.882C159.746,-265.152 156.035,-265.152 153.75,-262.882L-7.305,-101.898C-8.399,-100.794 -9.891,-100.173 -11.445,-100.173C-12.999,-100.173 -14.491,-100.794 -15.585,-101.898L-15.586,-101.9Z" style="fill:rgb(222,89,89);fill-rule:nonzero;"/>
        </g>
    </g>
</svg>
